X:11178
T: Moridon Cottet
O:Pauvert Repertoire
M:3/8
L:1/8
K:C
c|B/A/Gc|d2f|e/d/cd|edc|\
B/A/Gc|d2f|e/d/ce|d2:|
|:c|de/f/g|edg|a/g/fe|d2c|\
d/e/fd|ecd|e/d/cB|c2:|
